svg/fluentui-system-icons/ic_fluent_notebook_section_arrow_right_24_regular.svg

<svg width="24" height="24" viewBox="0 0 24 24" fill="none" xmlns="http://www.w3.org/2000/svg">
<path d="M15.6482 2.00685L15.75 2C16.1297 2 16.4435 2.28215 16.4932 2.64823L16.5 2.75V11.0767C15.9768 11.1575 15.4742 11.3007 15 11.4985V5.49986H9.25C8.83579 5.49986 8.5 5.83564 8.5 6.24986V17.7464C8.5 18.1606 8.83579 18.4964 9.25 18.4964H11.0758C11.1563 19.0195 11.2991 19.5221 11.4965 19.9962L9.25 19.9964C8.00736 19.9964 7 18.989 7 17.7464V6.24986C7 5.00722 8.00736 3.99986 9.25 3.99986L15 3.999V2.75C15 2.3703 15.2822 2.05651 15.6482 2.00685Z" fill="#212121"/>
<path d="M23 17.5003C23 20.5379 20.5376 23.0003 17.5 23.0003C14.4624 23.0003 12 20.5379 12 17.5003C12 14.4627 14.4624 12.0003 17.5 12.0003C20.5376 12.0003 23 14.4627 23 17.5003ZM14.5 17.0003C14.2239 17.0003 14 17.2242 14 17.5003C14 17.7764 14.2239 18.0003 14.5 18.0003H19.2929L17.6464 19.6468C17.4512 19.842 17.4512 20.1586 17.6464 20.3539C17.8417 20.5491 18.1583 20.5491 18.3536 20.3539L20.8536 17.8539C21.0488 17.6586 21.0488 17.342 20.8536 17.1468L18.3536 14.6468C18.1583 14.4515 17.8417 14.4515 17.6464 14.6468C17.4512 14.842 17.4512 15.1586 17.6464 15.3539L19.2929 17.0003H14.5Z" fill="#212121"/>
</svg>

<svg xmlns="http://www.w3.org/2000/svg" width="24" height="24"><path d="M15.648 2.007 15.75 2a.75.75 0 0 1 .743.648l.007.102v8.327a6.452 6.452 0 0 0-1.5.421V5.5H9.25a.75.75 0 0 0-.75.75v11.496c0 .415.336.75.75.75h1.826c.08.524.223 1.026.42 1.5H9.25A2.25 2.25 0 0 1 7 17.746V6.25A2.25 2.25 0 0 1 9.25 4L15 3.999V2.75a.75.75 0 0 1 .648-.743Z"/><path d="M23 17.5a5.5 5.5 0 1 1-11 0 5.5 5.5 0 0 1 11 0Zm-8.5-.5a.5.5 0 0 0 0 1h4.793l-1.647 1.647a.5.5 0 0 0 .708.707l2.5-2.5a.5.5 0 0 0 0-.707l-2.5-2.5a.5.5 0 0 0-.708.707L19.293 17H14.5Z"/></svg>
